client/public/assets/icons/utility/agent_session.svg

<?xml version="1.0"?><svg xmlns="http://www.w3.org/2000/svg" width="52" height="52" viewBox="0 0 52 52"><path fill="#fff" d="m26 4c-13.3 0-23.9 9.8-23.9 21.9 0 3.8 1.1 7.4 2.9 10.6 0.3 0.5 0.4 1.1 0.2 1.7l-3.1 8.5c-0.3 0.8 0.5 1.5 1.3 1.3l8.6-3.3c0.5-0.2 1.1-0.1 1.7 0.2 3.6 2 7.9 3.2 12.5 3.2 13.1-0.1 23.8-9.8 23.8-22-0.1-12.3-10.8-22.1-24-22.1z m-6.5 32c0 0.5-0.4 0.9-0.9 0.9h-4.2c-0.5 0-0.9-0.4-0.9-0.9v-5.4c0-0.5 0.4-0.9 0.9-0.9h4.2c0.5 0 0.9 0.4 0.9 0.9v5.4z m9.6 0c0 0.5-0.4 0.9-0.9 0.9h-4.2c-0.5 0-0.9-0.4-0.9-0.9v-12.7c0-0.5 0.4-0.9 0.9-0.9h4.2c0.5 0 0.9 0.4 0.9 0.9v12.7z m9.6 0c0 0.5-0.4 0.9-0.9 0.9h-4.2c-0.5 0-0.9-0.4-0.9-0.9v-19.9c0-0.5 0.4-0.9 0.9-0.9h4.2c0.5 0 0.9 0.4 0.9 0.9v19.9z"></path></svg>

<?xml version="1.0" encoding="utf-8"?>
<!-- Generator: Adobe Illustrator 21.1.0, SVG Export Plug-In . SVG Version: 6.00 Build 0)  -->
<svg version="1.1" id="Layer_1" xmlns="http://www.w3.org/2000/svg" xmlns:xlink="http://www.w3.org/1999/xlink" x="0px" y="0px"
	 width="52px" height="52px" viewBox="0 0 52 52" enable-background="new 0 0 52 52" xml:space="preserve">
<path fill="#FFFFFF" d="M26,4C12.7,4,2.1,13.8,2.1,25.9c0,3.8,1.1,7.4,2.9,10.6c0.3,0.5,0.4,1.1,0.2,1.7l-3.1,8.5
	c-0.3,0.8,0.5,1.5,1.3,1.3l8.6-3.3c0.5-0.2,1.1-0.1,1.7,0.2c3.6,2,7.9,3.2,12.5,3.2C39.3,48,50,38.3,50,26.1C49.9,13.8,39.2,4,26,4z
	 M19.5,36c0,0.5-0.4,0.9-0.9,0.9h-4.2c-0.5,0-0.9-0.4-0.9-0.9v-5.4c0-0.5,0.4-0.9,0.9-0.9h4.2c0.5,0,0.9,0.4,0.9,0.9V36z M29.1,36
	c0,0.5-0.4,0.9-0.9,0.9H24c-0.5,0-0.9-0.4-0.9-0.9V23.3c0-0.5,0.4-0.9,0.9-0.9h4.2c0.5,0,0.9,0.4,0.9,0.9V36z M38.7,36
	c0,0.5-0.4,0.9-0.9,0.9h-4.2c-0.5,0-0.9-0.4-0.9-0.9V16.1c0-0.5,0.4-0.9,0.9-0.9h4.2c0.5,0,0.9,0.4,0.9,0.9V36z"/>
</svg>
